src/assets/logout.svg

<svg width="46" height="46" viewBox="0 0 46 46" fill="none" xmlns="http://www.w3.org/2000/svg">
<g clip-path="url(#clip0)">
<path d="M28.75 24.9167C27.6901 24.9167 26.8333 25.7753 26.8333 26.8333V34.5C26.8333 35.5561 25.9747 36.4167 24.9167 36.4167H19.1667V7.66667C19.1667 6.02983 18.124 4.56742 16.5562 4.02308L15.9888 3.83333H24.9167C25.9747 3.83333 26.8333 4.69392 26.8333 5.75V11.5C26.8333 12.558 27.6901 13.4167 28.75 13.4167C29.8099 13.4167 30.6667 12.558 30.6667 11.5V5.75C30.6667 2.57983 28.0868 0 24.9167 0H4.3125C4.23967 0 4.17833 0.0325833 4.10742 0.0421667C4.01542 0.0345 3.92725 0 3.83333 0C1.71925 0 0 1.71925 0 3.83333V38.3333C0 39.9702 1.04267 41.4326 2.6105 41.9769L14.145 45.8217C14.536 45.9425 14.9251 46 15.3333 46C17.4474 46 19.1667 44.2807 19.1667 42.1667V40.25H24.9167C28.0868 40.25 30.6667 37.6702 30.6667 34.5V26.8333C30.6667 25.7753 29.8099 24.9167 28.75 24.9167Z" fill="#36458F"/>
<path d="M45.4385 17.8116L37.7718 10.145C37.2237 9.59679 36.3995 9.43195 35.6827 9.72904C34.9678 10.0261 34.5001 10.7257 34.5001 11.5V17.25H26.8334C25.7754 17.25 24.9167 18.1087 24.9167 19.1667C24.9167 20.2247 25.7754 21.0834 26.8334 21.0834H34.5001V26.8334C34.5001 27.6077 34.9678 28.3073 35.6827 28.6044C36.3995 28.9015 37.2237 28.7366 37.7718 28.1885L45.4385 20.5218C46.1879 19.7724 46.1879 18.561 45.4385 17.8116Z" fill="#36458F"/>
</g>
<defs>
<clipPath id="clip0">
<rect width="46" height="46" fill="white"/>
</clipPath>
</defs>
</svg>

<svg fill="none" xmlns="http://www.w3.org/2000/svg" viewBox="0 0 46 46">
  <g clip-path="url(#clip0)" fill="#36458F">
    <path d="M28.75 24.917c-1.06 0-1.917.858-1.917 1.916V34.5a1.919 1.919 0 01-1.916 1.917h-5.75V7.667c0-1.637-1.043-3.1-2.61-3.644l-.568-.19h8.928c1.058 0 1.916.86 1.916 1.917v5.75a1.916 1.916 0 103.834 0V5.75c0-3.17-2.58-5.75-5.75-5.75H4.312c-.072 0-.134.033-.205.042C4.015.035 3.927 0 3.833 0A3.837 3.837 0 000 3.833v34.5c0 1.637 1.043 3.1 2.61 3.644l11.535 3.845c.391.12.78.178 1.188.178a3.837 3.837 0 003.834-3.833V40.25h5.75c3.17 0 5.75-2.58 5.75-5.75v-7.667a1.916 1.916 0 00-1.917-1.916z"/>
    <path d="M45.438 17.812l-7.666-7.667A1.916 1.916 0 0034.5 11.5v5.75h-7.667a1.917 1.917 0 000 3.833H34.5v5.75a1.916 1.916 0 003.272 1.355l7.666-7.666c.75-.75.75-1.961 0-2.71z"/>
  </g>
  <defs>
    <clipPath id="clip0">
      <path fill="#fff" d="M0 0h46v46H0z"/>
    </clipPath>
  </defs>
</svg>
